X: 166
T:Cattle in the Cane
M:4/4
L:1/8
Q:1/2=100
C:American
R:Reel
F:http://deliveryboys.net/publicdo.abc	 2007-05-12 14:07:19 UT
K:C
((3e^f^g|:"Am"a2) A2 A2 A-B|cAB-c A2 AG|E-GAB "C"c2 cB|A-Bcd "E"e2 ((3e^
f^g|"Am"a2) A2 A2 AB|!
cAB-c A2 A-B|cBAc "E"BAGB|[1"Am"AGE-G A2 ((3e^f^g):|[2"Am"AGE-G A2 ^cd||
!
K:d
"A"e2 efe2 cd|efed cB A2|"G"[g2B2] [gB][gB] [g2B2] ef|
gfed cdef|!
"A"[a2c2] [ac][ac] [a2c2] ef|afed cB A2|"G"GFGA BAGB|[1"A"A2 A
A A2 cd:|[2"A"A2 AA A4|]

